X:1
T:Hoddom Castle
M:6/8
L:1/8
R:Sow Air
N:"Slow"
B:Gow - 3rd Collection of Niel Gow's Reels, 3rd ed., p. 6  (orig. 1792)
Z:AK/Fiddler's Companion
K:Bb
F|B2B TB>cd|{c}e2 c/B/ {B}AGF|B>cB (Bd).f|f>gf {f}edTc|
(dB).B (BG).G|(ec).c (cA).A|B>cd {d}cBA|[DB][DB][DB] [D2B2]:|
|:Td/e/|(fd).d (dB).B|(ec).c (cA).A|TB>cd cc/d/c/B/|AFF FGA|
BBB (Gc)c|(Ad).d (Be).e|(cf)e {e}dcB|1 cFA (B/A/)B/c/:|2 cFA [D2B2]||

